X: 1
T: Biddy Barry's
M: 4/4
L: 1/8
R: barndance / schottische
K: G Major
|: z2 |
GB D2 GB D2 | G2 B2 B2 AG | FA D2 FA D2 | F2 A2 A2 GF |
GB D2 GB D2 | G2 B2 B2 AG | cBAG FDEF | A2 G2 G2 :|
|: Bc |
d2 g2 g2 fe | d2 B2 B2 AB | c2 e2 e2 dc | B2 G2 G2 Bc |
d2 g2 g2 fe | d2 B2 B2 AB | cBAG FDEF | G2 G2 G2 :|
